X:2886
T:Charlie Lennon's Sister
M:6/8
L:1/8
R:Jig
N:Allegedly composed by Charlie Lennon's sister
K:G
||:D|G2 B BAB| gdB gdB|G2 B BAB|AFD AFD|
G2 B BAB|gdB gdB|ABB dBB|cAF G2 :||:
(3Bcd| ~g3 bgd|~g3 bgd|~f3 afd|fag fed|
~g3 bgd|~g3 bgd|ABB dBB|cAF G2 :||


